!!!!SEGMENT: pl-kk--kk-i-69--004_anonim--protexisti-pro-festo-alleluia.krn
!!!cenid: 17xx:2285
!!!COM: Anonim
!!!COM-rismID: pe30004985
!!!CDT:
!!!CNT:
!!!OPR: Protexisti pro festo
!!!OTL: Alleluia
!!!OMV: 004
!!!PDT:
!!!AGN: Sacred; Mass
!!!SMS-siglum: PL-Kk
!!!SMS-shelfmark: Kk.I.69
!!!SMS-shelfwork: 001-004 M
!!!SMS-variant:
!!!SMS-altvar:
!!!NIFC-rismSourceID: 1001154789
!!!NIFC-rismChildID: 1001154789
!!!NIFC-islandoraID: pl-kk:15747
!!!URL-pdf-islandora: https://repozytorium.nifc.pl/islandora/object/pl-kk%3A15747/datastream/PDF/view
!!!URL-scan: https://polish.musicsources.pl/pl/lokalizacje/galeria/rekopisy/7324/1 @EN{Scan on Polish Music Sources Website} @PL{Skany w portalu Dziedzictwo Muzyki Polskiej w otwartym dostępie}
!!!IIIF:
!!!ONB-nifc: UWAGA: części Mszy: 1. Protexisti me, 2. Kyrie, 3. Et in terra, 4. Alleluia, 5. Patrem, 6. Posuisti Domine, 7. Sanctus, 8. Benedictus, 9. Agnus Dei, 10. Dona nobis, 11. Deo gratias
!!!AIN: 1 empty 2 tenor
!!!key:
**kern	**text	**kern	**text	**kern	**text	**text
*part3	*part3	*part2	*part2	*part1	*part1	*part1
*staff3	*staff3	*staff2	*staff2	*staff1	*staff1	*staff1
*Iempty	*	*Itenor	*	*Itenor	*	*
*I"Baſso	*	*I"Tenore Secundo	*	*I"Tenore Primo	*	*
*I'B	*	*I'T 2	*	*I'T 1	*	*
*clefF4	*	*clefC4	*	*clefC4	*	*
*k[]	*	*k[]	*	*k[]	*	*
*C:	*	*C:	*	*C:	*	*
*M2/2	*	*M2/2	*	*M2/2	*	*
*met(c|)	*	*met(c|)	*	*met(c|)	*	*
=1	=1	=1	=1	=1	=1	=1
!LO:TX:a:t=Graduale	!	!LO:TX:a:t=Graduale	!	!LO:TX:a:t=Graduale	!	!
4C/	Al-	1G	Al-	1c	Al-	.
4D/	.	.	.	.	.	.
4E/	.	.	.	.	.	.
4C/	.	.	.	.	.	.
=2	=2	=2	=2	=2	=2	=2
*2\right	*	*2\right	*	*2\right	*	*
2G\	-le-	2B\	-le-	2d\	-le-	.
2c\	.	2c\	.	2e\	.	.
=3	=3	=3	=3	=3	=3	=3
1G	-lu-	4d\	.	4f\	.	.
.	.	4c\	.	4e\	.	.
.	.	4B\	.	4d\	.	.
.	.	4d\	-lu-	4f\	-lu-	.
=4	=4	=4	=4	=4	=4	=4
2C/	-ia	2c\	-ia	2e\	-ia	.
2E\	al-	2c\	al-	2g\	al-	.
=5	=5	=5	=5	=5	=5	=5
2D\	-le-	2B\	-le-	2f\	-le-	.
2C\	.	2G/	.	2e\	.	.
=6	=6	=6	=6	=6	=6	=6
1G	-lu-	2B\	.	2d\	.	.
.	.	2c\	-lu-	2e\	-lu-	.
!	!	!	!	!LO:LB:g=original	!	!
=7	=7	=7	=7	=7	=7	=7
1G	-ia	1B	-ia	1d	-ia	.
!	!	!LO:LB:g=original	!	!	!	!
=8	=8	=8	=8	=8	=8	=8
4G\	al-	1d	al-	1f	al-	.
4A\	.	.	.	.	.	.
4B\	.	.	.	.	.	.
4G\	.	.	.	.	.	.
!LO:LB:g=original	!	!	!	!	!	!
=9	=9	=9	=9	=9	=9	=9
4c\	-le-	1c	-le-	1e	-le-	.
4G\	.	.	.	.	.	.
4E\	.	.	.	.	.	.
4C\	.	.	.	.	.	.
=10	=10	=10	=10	=10	=10	=10
2F\	-lu-	1B	-lu-	1d	-lu-	.
2G\	.	.	.	.	.	.
=11	=11	=11	=11	=11	=11	=11
1C	-ia	2G;/	-ia	2e;\	-ia	.
.	.	2r	.	2r	.	.
=12||	=12||	=12||	=12||	=12||	=12||	=12||
*M3/2	*	*M3/2	*	*M3/2	*	*
0.r	.	1.r	.	4c\	Sur-	.
.	.	.	.	4B\	.	.
.	.	.	.	4c\	.	.
.	.	.	.	4d\	.	.
.	.	.	.	4e\	.	.
.	.	.	.	4f\	.	.
=13-	=13	=13	=13	=13	=13	=13
.	.	4c\	Sur-	4e\	-re-	.
.	.	4B\	.	4d\	.	.
.	.	4c\	-re-	4e\	.	.
.	.	4d\	.	4f\	.	.
.	.	4e\	-xit	4g\	-xit	.
.	.	4f\	.	4a\	.	.
!	!	!	!	!LO:LB:g=original	!	!
=14	=14	=14	=14	=14	=14	=14
4C/	Sur-	4e\	sur-	4g\	sur-	.
4BB/	.	4d\	.	4f\	.	.
4C/	-re-	4c\	-re-	4e\	-re-	.
4D/	.	4B\	.	4f\	.	.
4E/	-xit	2c\	-xit	4g\	-xit	.
4F/	.	.	.	4a\	.	.
!	!	!LO:LB:g=original	!	!	!	!
=15	=15	=15	=15	=15	=15	=15
2E/	pas-	2c\	pas-	2g\	pas-	.
2D/	.	2B\	.	2f\	.	.
2C/	-tor	2G/	-tor	2e\	-tor	.
!LO:LB:g=original	!	!	!	!	!	!
=16	=16	=16	=16	=16	=16	=16
2D\	bo-	2A\	bo-	2f\	bo-	.
1G	.	2c\	.	2e\	.	.
.	.	2B\	.	2d\	.	.
=17	=17	=17	=17	=17	=17	=17
1C	-nus,	1G	-nus,	1e	-nus,	.
2C/	qui	2G/	qui	2e\	qui	.
=18	=18	=18	=18	=18	=18	=18
1.G	po-	4B\	po-	4d\	po-	.
.	.	4A\	.	4c\	.	.
.	.	4G\	.	4B\	.	.
.	.	4A\	.	4c\	.	.
.	.	4B\	.	4d\	.	.
.	.	4c\	.	4e\	.	.
=19	=19	=19	=19	=19	=19	=19
2G\	.	4d\	.	4f\	.	.
.	.	4c\	.	4e\	.	.
2B\	.	4d\	.	4f\	.	.
.	.	4c\	.	4e\	.	.
2G\	.	4B\	.	4d\	.	.
.	.	4d\	.	4f\	.	.
!	!	!	!	!LO:LB:g=original	!	!
=20	=20	=20	=20	=20	=20	=20
4C/	.	4c\	.	4e\	.	.
4BB/	.	4d\	.	4f\	.	.
4C/	-su-	4c\	-su-	4e\	-su-	.
4BB/	.	4d\	.	4f\	.	.
2C/	-it	2e\	-it	2g\	-it	.
!	!	!LO:LB:g=original	!	!	!	!
=21	=21	=21	=21	=21	=21	=21
2F\	a-	4f\	a-	4a\	a-	.
.	.	4e\	.	4g\	.	.
2D\	.	4d\	.	4f\	.	.
.	.	4c#X\	.	4e\	.	.
2BB/	.	4d\	.	4f\	.	.
.	.	4f\	.	4a\	.	.
=22	=22	=22	=22	=22	=22	=22
2C/	.	4e\	.	4g\	.	.
.	.	4d\	.	4f\	.	.
2E/	.	4c\	.	4e\	.	.
.	.	4B\	.	4d\	.	.
2C/	.	4c\	.	4e\	.	.
.	.	4e\	.	4g\	.	.
!LO:LB:g=original	!	!	!	!	!	!
=23	=23	=23	=23	=23	=23	=23
2G\	.	4d\	.	4f\	.	.
.	.	4c\	.	4e\	.	.
2D/	.	4B\	.	4d\	.	.
.	.	4A\	.	4c\	.	.
2BB/	.	4B\	.	4d\	.	.
.	.	4d\	.	4f\	.	.
=24	=24	=24	=24	=24	=24	=24
2.E\	.	2.c\	.	2.e\	.	.
4D\	-ni-	4d\	-ni-	4f\	-ni-	.
2C\	-mam	2e\	-mam	2g\	-mam	.
!	!	!	!	!LO:LB:g=original	!	!
=25	=25	=25	=25	=25	=25	=25
1F	su-	1.A	su-	4d\	su-	[[pro]]
.	.	.	.	4f\	.	.
.	.	.	.	4a\	.	.
.	.	.	.	4g\	.	.
2F#X\	.	.	.	4f\	.	.
.	.	.	.	4e\	.	.
=26	=26	=26	=26	=26	=26	=26
1G	-am	2c\	.	2e\	.	.
.	.	2B\	-am	2d\	-am	.
2r	.	2r	.	2r	.	.
!	!	!LO:LB:g=original	!	!	!	!
=27	=27	=27	=27	=27	=27	=27
2G\	pro	2B\	pro	1.f	pro	.
2B\	.	1d	.	.	.	.
2G\	.	.	.	.	.	.
=28	=28	=28	=28	=28	=28	=28
2.c\	o-	2.e\	o-	2.g\	o-	.
4G\	-vi-	4d\	-vi-	4f\	-vi-	.
2E\	-bus	2c\	-bus	2e\	-bus	.
=29	=29	=29	=29	=29	=29	=29
2F\	su-	2A\	su-	2f\	su-	.
1G	.	2c\	.	2e\	.	.
.	.	2B\	.	2d\	.	.
=30	=30	=30	=30	=30	=30	=30
1C	-is	1c	-is	1e	-is	.
2r	.	2r	.	2r	.	.
!LO:LB:g=original	!	!	!	!LO:LB:g=original	!	!
=31	=31	=31	=31	=31	=31	=31
2A\	et	2c\	et	1e	ex	.
2c\	.	2A\	.	.	.	.
2A\	pro	2c\	pro	2e\	pro	.
=32	=32	=32	=32	=32	=32	=32
2G#X\	su-	1B	su-	1e	su-	.
2E\	.	.	.	.	.	.
2G#\	-o	2B\	-o	2e\	-o	.
=33	=33	=33	=33	=33	=33	=33
2A\	gre-	1c	gre-	1e	gre-	.
2E\	.	.	.	.	.	.
2AA/	-ge	2c\	-ge	2e\	-ge	.
!	!	!LO:LB:g=original	!	!	!	!
=34	=34	=34	=34	=34	=34	=34
1G#X	mo-	1B	mo-	1d	mo-	.
2A\	-ri	2c\	-ri	2e\	-ri	.
=35	=35	=35	=35	=35	=35	=35
2G#X\	mo-	2d\	mo-	1f	mo-	.
2E\	.	2B\	.	.	.	.
2A\	-ri	2c\	-ri	2e\	-ri	.
=36	=36	=36	=36	=36	=36	=36
2D\	di-	2A\	di-	2f\	di-	.
2E\	gna-	2c\	-gna-	2e\	-gna-	.
2E\	-tus	2B\	-tus	2e\	-tus	.
=37	=37	=37	=37	=37	=37	=37
2AA/	est	2c\	est	2e\	est	.
2r	.	2r	.	2r	.	.
2r	.	2r	.	2r	.	.
!LO:LB:g=original	!	!	!	!LO:PB:g=original	!	!
=38	=38	=38	=38	=38	=38	=38
2C/	et	1G	et	2e\	et	.
2E/	.	.	.	2g\	.	.
2C/	pro	2G/	pro	2e\	pro	.
=39	=39	=39	=39	=39	=39	=39
2G\	su-	1B	su-	1d	su-	.
2F\	.	.	.	.	.	.
2E\	-o	2c\	-o	2e\	-o	.
=40	=40	=40	=40	=40	=40	=40
1BB	gre-	1d	gre-	1f	gre-	.
2C/	-ge	2c\	-ge	2e\	-ge	.
!	!	!LO:LB:g=original	!	!	!	!
=41	=41	=41	=41	=41	=41	=41
2G\	mo-	2B\	mo-	2d\	mo-	.
2B\	.	2d\	.	2f\	.	.
2c\	-ri	2c\	-ri	2e\	-ri	.
=42	=42	=42	=42	=42	=42	=42
2F\	di-	2A\	di-	2f\	di-	.
2G\	-gna-	2c\	-gna-	2e\	-gna-	.
2G\	-tus	2B\	-tus	2d\	-tus	.
=43	=43	=43	=43	=43	=43	=43
2C/	est,	2c\	est,	2e\	est	.
4C/	al-	2e\	al-	2g\	al-	.
4D/	.	.	.	.	.	.
4E/	-le-	2c\	-le-	2e\	-le-	.
4F/	.	.	.	.	.	.
!LO:LB:g=original	!	!	!	!LO:LB:g=original	!	!
=44	=44	=44	=44	=44	=44	=44
1G	-lu-	1B	-lu-	1d	-lu-	.
2G\	-ia	2B\	-ia	2d\	-ia	.
=45	=45	=45	=45	=45	=45	=45
2r	.	2r	.	2r	.	.
2B\	al-	2d\	al-	2f\	al-	.
2c\	-le-	2c\	-le-	2e\	-le-	.
=46	=46	=46	=46	=46	=46	=46
1.G	-lu-	2B\	-lu-	2d\	-lu-	.
.	.	2c\	.	2e\	.	.
.	.	2B\	.	2d\	.	.
=47	=47	=47	=47	=47	=47	=47
1.C	-ia.	1.G	-ia	1.e	-ia	.
!LO:PB:g=original	!	!LO:PB:g=original	!	!LO:LB:g=original	!	!
==	==	==	==	==	==	==
*-	*-	*-	*-	*-	*-	*-
!!!system-decoration: [(s1,s2,s3)]
!!!ENC: Marta Chmielewska
!!!END: 2021-08-06
!!!ENC: Marcin Jachim
!!!END: 2021-07-09
!!!YEC: Copyright 2022 Narodowy Instytut Fryderyka Chopina (https://polishscores.org)
!!!YEM: License CC-BY-4.0 (https://creativecommons.org/licenses/by/4.0)
